!!!OTL: ALS ICH AN EINEM SOMMERTAG
!!!ARE: Europa, Mitteleuropa, Deutschland, Altmark
!!!SCT: E0517
!!!YEM: Copyright 1995, estate of Helmut Schaffrath.
**kern
*ICvox
*Ivox
*M2/4
*k[f#]
*G:
{8d
=1
8d
8g
8g
8g
=2
8d
8b
4g}
=3
{4a
16g
16f#
16e
16d
=4
8d
8b
8g}
{8d
=5
8d
8g
8g
8g
=6
8d
8b
4g}
=7
{4a
16g
16f#
16e
16d
=8
8d
8b
8g}
{8g
=9
8a
8a
8a
8f#
=10
16g
16f#
16g
16a
8f#}
{16d
16f#
=11
8a
8a
8a
8g
=12
8f#
8e
8d
16r}
{16d
=13
8g
16g
16a
8b
8b
=14
8a
8dd
8b
16r}
{16d
=15
16g
16f#
16g
16a
8b
8dd
=16
4a
4dd
=17
4g
8r}
==
!!!AGN: Liebes - Lied
!!!ONB: ESAC (Essen Associative Code) Database: ERK1
!!!AMT: simple duple
!!!AIN: vox
!!!EED: Helmut Schaffrath
!!!EEV: 1.0
*-
